static/img/kroki/b6c7382ee828de62daac423320b22c3a.svg

<?xml version="1.0" encoding="us-ascii" standalone="no"?><svg xmlns="http://www.w3.org/2000/svg" xmlns:xlink="http://www.w3.org/1999/xlink" contentStyleType="text/css" height="1085px" preserveAspectRatio="none" style="width:538px;height:1085px;" version="1.1" viewBox="0 0 538 1085" width="538px" zoomAndPan="magnify"><defs/><g><!--class aws_backup_advanced_backup_setting--><g id="elem_aws_backup_advanced_backup_setting"><rect codeLine="23" fill="#3D176E" height="100.3828" id="aws_backup_advanced_backup_setting" rx="2.5" ry="2.5" style="stroke:#000D19;stroke-width:0.5;" width="366" x="86" y="978.31"/><ellipse cx="101" cy="998.2045" fill="#ADD1B2" rx="11" ry="11" style="stroke:#181818;stroke-width:1.0;"/><path d="M103.9688,1003.8452 Q103.3906,1004.142 102.75,1004.2827 Q102.1094,1004.4389 101.4063,1004.4389 Q98.9063,1004.4389 97.5781,1002.7983 Q96.2656,1001.142 96.2656,998.017 Q96.2656,994.892 97.5781,993.2358 Q98.9063,991.5795 101.4063,991.5795 Q102.1094,991.5795 102.75,991.7358 Q103.4063,991.892 103.9688,992.1889 L103.9688,994.9077 Q103.3438,994.3295 102.75,994.0639 Q102.1563,993.7827 101.5313,993.7827 Q100.1875,993.7827 99.5,994.8608 Q98.8125,995.9233 98.8125,998.017 Q98.8125,1000.1108 99.5,1001.1889 Q100.1875,1002.2514 101.5313,1002.2514 Q102.1563,1002.2514 102.75,1001.9858 Q103.3438,1001.7045 103.9688,1001.1264 L103.9688,1003.8452 Z " fill="#000000"/><text fill="#D9B8FF" font-family="Helvetica" font-size="17" lengthAdjust="spacing" textLength="324" x="120" y="1004.0898">aws_backup_advanced_backup_setting</text><line style="stroke:#000D19;stroke-width:0.5;" x1="87" x2="451" y1="1018.0991" y2="1018.0991"/><text fill="#D9B8FF" font-family="sans-serif" font-size="14" font-weight="bold" lengthAdjust="spacing" textLength="123" x="97" y="1040.0942">backup_options</text><text fill="#D9B8FF" font-family="sans-serif" font-size="14" lengthAdjust="spacing" textLength="171" x="220" y="1040.0942">: dictionary[string, string]</text><text fill="#D9B8FF" font-family="sans-serif" font-size="14" font-weight="bold" lengthAdjust="spacing" textLength="114" x="97" y="1066.3911">resource_type</text><text fill="#D9B8FF" font-family="sans-serif" font-size="14" lengthAdjust="spacing" textLength="48" x="211" y="1066.3911">: string</text></g><!--class aws_backup_plan--><g id="elem_aws_backup_plan"><rect codeLine="27" fill="#3D176E" height="284.4609" id="aws_backup_plan" rx="2.5" ry="2.5" style="stroke:#000D19;stroke-width:0.5;" width="524" x="7" y="633.85"/><ellipse cx="186.75" cy="653.7445" fill="#ADD1B2" rx="11" ry="11" style="stroke:#181818;stroke-width:1.0;"/><path d="M189.7188,659.3852 Q189.1406,659.682 188.5,659.8227 Q187.8594,659.9789 187.1563,659.9789 Q184.6563,659.9789 183.3281,658.3383 Q182.0156,656.682 182.0156,653.557 Q182.0156,650.432 183.3281,648.7758 Q184.6563,647.1195 187.1563,647.1195 Q187.8594,647.1195 188.5,647.2758 Q189.1563,647.432 189.7188,647.7289 L189.7188,650.4477 Q189.0938,649.8695 188.5,649.6039 Q187.9063,649.3227 187.2813,649.3227 Q185.9375,649.3227 185.25,650.4008 Q184.5625,651.4633 184.5625,653.557 Q184.5625,655.6508 185.25,656.7289 Q185.9375,657.7914 187.2813,657.7914 Q187.9063,657.7914 188.5,657.5258 Q189.0938,657.2445 189.7188,656.6664 L189.7188,659.3852 Z " fill="#000000"/><text fill="#D9B8FF" font-family="Helvetica" font-size="17" lengthAdjust="spacing" textLength="146" x="212.25" y="659.6298">aws_backup_plan</text><line style="stroke:#000D19;stroke-width:0.5;" x1="8" x2="530" y1="673.6391" y2="673.6391"/><text fill="#D9B8FF" font-family="sans-serif" font-size="14" font-weight="bold" lengthAdjust="spacing" textLength="211" x="18" y="695.6342">advanced_backup_settings</text><text fill="#D9B8FF" font-family="sans-serif" font-size="14" lengthAdjust="spacing" textLength="291" x="229" y="695.6342">: aws_backup_advanced_backup_setting[]</text><text fill="#D9B8FF" font-family="sans-serif" font-size="14" font-weight="bold" lengthAdjust="spacing" textLength="130" x="18" y="721.9311">backup_plan_arn</text><text fill="#D9B8FF" font-family="sans-serif" font-size="14" lengthAdjust="spacing" textLength="48" x="148" y="721.9311">: string</text><text fill="#D9B8FF" font-family="sans-serif" font-size="14" font-weight="bold" lengthAdjust="spacing" textLength="118" x="18" y="748.2279">backup_plan_id</text><text fill="#D9B8FF" font-family="sans-serif" font-size="14" lengthAdjust="spacing" textLength="48" x="136" y="748.2279">: string</text><text fill="#D9B8FF" font-family="sans-serif" font-size="14" font-weight="bold" lengthAdjust="spacing" textLength="147" x="18" y="774.5248">backup_plan_name</text><text fill="#D9B8FF" font-family="sans-serif" font-size="14" lengthAdjust="spacing" textLength="48" x="165" y="774.5248">: string</text><text fill="#D9B8FF" font-family="sans-serif" font-size="14" font-weight="bold" lengthAdjust="spacing" textLength="107" x="18" y="800.8217">creation_date</text><text fill="#D9B8FF" font-family="sans-serif" font-size="14" lengthAdjust="spacing" textLength="70" x="125" y="800.8217">: datetime</text><text fill="#D9B8FF" font-family="sans-serif" font-size="14" font-weight="bold" lengthAdjust="spacing" textLength="148" x="18" y="827.1186">creator_request_id</text><text fill="#D9B8FF" font-family="sans-serif" font-size="14" lengthAdjust="spacing" textLength="48" x="166" y="827.1186">: string</text><text fill="#D9B8FF" font-family="sans-serif" font-size="14" font-weight="bold" lengthAdjust="spacing" textLength="106" x="18" y="853.4154">deletion_date</text><text fill="#D9B8FF" font-family="sans-serif" font-size="14" lengthAdjust="spacing" textLength="70" x="124" y="853.4154">: datetime</text><text fill="#D9B8FF" font-family="sans-serif" font-size="14" font-weight="bold" lengthAdjust="spacing" textLength="155" x="18" y="879.7123">last_execution_date</text><text fill="#D9B8FF" font-family="sans-serif" font-size="14" lengthAdjust="spacing" textLength="70" x="173" y="879.7123">: datetime</text><text fill="#D9B8FF" font-family="sans-serif" font-size="14" font-weight="bold" lengthAdjust="spacing" textLength="80" x="18" y="906.0092">version_id</text><text fill="#D9B8FF" font-family="sans-serif" font-size="14" lengthAdjust="spacing" textLength="48" x="98" y="906.0092">: string</text></g><!--class aws_resource--><g id="elem_aws_resource"><rect codeLine="38" fill="#3D176E" height="74.0859" id="aws_resource" rx="2.5" ry="2.5" style="stroke:#000D19;stroke-width:0.5;" width="155" x="191.5" y="438.76"/><ellipse cx="206.5" cy="458.6545" fill="#ADD1B2" rx="11" ry="11" style="stroke:#181818;stroke-width:1.0;"/><path d="M209.4688,464.2952 Q208.8906,464.592 208.25,464.7327 Q207.6094,464.8889 206.9063,464.8889 Q204.4063,464.8889 203.0781,463.2483 Q201.7656,461.592 201.7656,458.467 Q201.7656,455.342 203.0781,453.6858 Q204.4063,452.0295 206.9063,452.0295 Q207.6094,452.0295 208.25,452.1858 Q208.9063,452.342 209.4688,452.6389 L209.4688,455.3577 Q208.8438,454.7795 208.25,454.5139 Q207.6563,454.2327 207.0313,454.2327 Q205.6875,454.2327 205,455.3108 Q204.3125,456.3733 204.3125,458.467 Q204.3125,460.5608 205,461.6389 Q205.6875,462.7014 207.0313,462.7014 Q207.6563,462.7014 208.25,462.4358 Q208.8438,462.1545 209.4688,461.5764 L209.4688,464.2952 Z " fill="#000000"/><text fill="#D9B8FF" font-family="Helvetica" font-size="17" lengthAdjust="spacing" textLength="113" x="225.5" y="464.5398">aws_resource</text><line style="stroke:#000D19;stroke-width:0.5;" x1="192.5" x2="345.5" y1="478.5491" y2="478.5491"/><text fill="#D9B8FF" font-family="sans-serif" font-size="14" font-weight="bold" lengthAdjust="spacing" textLength="26" x="202.5" y="500.5442">arn</text><text fill="#D9B8FF" font-family="sans-serif" font-size="14" lengthAdjust="spacing" textLength="48" x="228.5" y="500.5442">: string</text></g><!--class resource--><g id="elem_resource"><rect codeLine="41" fill="#3D176E" height="310.7578" id="resource" rx="2.5" ry="2.5" style="stroke:#000D19;stroke-width:0.5;" width="227" x="155.5" y="7"/><ellipse cx="224.25" cy="26.8945" fill="#ADD1B2" rx="11" ry="11" style="stroke:#181818;stroke-width:1.0;"/><path d="M227.2188,32.5352 Q226.6406,32.832 226,32.9727 Q225.3594,33.1289 224.6563,33.1289 Q222.1563,33.1289 220.8281,31.4883 Q219.5156,29.832 219.5156,26.707 Q219.5156,23.582 220.8281,21.9258 Q222.1563,20.2695 224.6563,20.2695 Q225.3594,20.2695 226,20.4258 Q226.6563,20.582 227.2188,20.8789 L227.2188,23.5977 Q226.5938,23.0195 226,22.7539 Q225.4063,22.4727 224.7813,22.4727 Q223.4375,22.4727 222.75,23.5508 Q222.0625,24.6133 222.0625,26.707 Q222.0625,28.8008 222.75,29.8789 Q223.4375,30.9414 224.7813,30.9414 Q225.4063,30.9414 226,30.6758 Q226.5938,30.3945 227.2188,29.8164 L227.2188,32.5352 Z " fill="#000000"/><text fill="#D9B8FF" font-family="Helvetica" font-size="17" lengthAdjust="spacing" textLength="71" x="249.75" y="32.7798">resource</text><line style="stroke:#000D19;stroke-width:0.5;" x1="156.5" x2="381.5" y1="46.7891" y2="46.7891"/><text fill="#D9B8FF" font-family="sans-serif" font-size="14" font-weight="bold" lengthAdjust="spacing" textLength="29" x="166.5" y="68.7842">age</text><text fill="#D9B8FF" font-family="sans-serif" font-size="14" lengthAdjust="spacing" textLength="66" x="195.5" y="68.7842">: duration</text><text fill="#D9B8FF" font-family="sans-serif" font-size="14" font-weight="bold" lengthAdjust="spacing" textLength="43" x="166.5" y="95.0811">atime</text><text fill="#D9B8FF" font-family="sans-serif" font-size="14" lengthAdjust="spacing" textLength="70" x="209.5" y="95.0811">: datetime</text><text fill="#D9B8FF" font-family="sans-serif" font-size="14" font-weight="bold" lengthAdjust="spacing" textLength="43" x="166.5" y="121.3779">ctime</text><text fill="#D9B8FF" font-family="sans-serif" font-size="14" lengthAdjust="spacing" textLength="70" x="209.5" y="121.3779">: datetime</text><text fill="#D9B8FF" font-family="sans-serif" font-size="14" font-weight="bold" lengthAdjust="spacing" textLength="14" x="166.5" y="147.6748">id</text><text fill="#D9B8FF" font-family="sans-serif" font-size="14" lengthAdjust="spacing" textLength="48" x="180.5" y="147.6748">: string</text><text fill="#D9B8FF" font-family="sans-serif" font-size="14" font-weight="bold" lengthAdjust="spacing" textLength="33" x="166.5" y="173.9717">kind</text><text fill="#D9B8FF" font-family="sans-serif" font-size="14" lengthAdjust="spacing" textLength="48" x="199.5" y="173.9717">: string</text><text fill="#D9B8FF" font-family="sans-serif" font-size="14" font-weight="bold" lengthAdjust="spacing" textLength="90" x="166.5" y="200.2686">last_access</text><text fill="#D9B8FF" font-family="sans-serif" font-size="14" lengthAdjust="spacing" textLength="66" x="256.5" y="200.2686">: duration</text><text fill="#D9B8FF" font-family="sans-serif" font-size="14" font-weight="bold" lengthAdjust="spacing" textLength="90" x="166.5" y="226.5654">last_update</text><text fill="#D9B8FF" font-family="sans-serif" font-size="14" lengthAdjust="spacing" textLength="66" x="256.5" y="226.5654">: duration</text><text fill="#D9B8FF" font-family="sans-serif" font-size="14" font-weight="bold" lengthAdjust="spacing" textLength="48" x="166.5" y="252.8623">mtime</text><text fill="#D9B8FF" font-family="sans-serif" font-size="14" lengthAdjust="spacing" textLength="70" x="214.5" y="252.8623">: datetime</text><text fill="#D9B8FF" font-family="sans-serif" font-size="14" font-weight="bold" lengthAdjust="spacing" textLength="43" x="166.5" y="279.1592">name</text><text fill="#D9B8FF" font-family="sans-serif" font-size="14" lengthAdjust="spacing" textLength="48" x="209.5" y="279.1592">: string</text><text fill="#D9B8FF" font-family="sans-serif" font-size="14" font-weight="bold" lengthAdjust="spacing" textLength="34" x="166.5" y="305.4561">tags</text><text fill="#D9B8FF" font-family="sans-serif" font-size="14" lengthAdjust="spacing" textLength="171" x="200.5" y="305.4561">: dictionary[string, string]</text></g><!--link aws_backup_plan to aws_backup_advanced_backup_setting--><g id="link_aws_backup_plan_aws_backup_advanced_backup_setting"><path codeLine="53" d="M269,918.75 C269,940 269,954.61 269,972.06 " fill="none" id="aws_backup_plan-to-aws_backup_advanced_backup_setting" style="stroke:#FFAF37;stroke-width:2.0;"/><polygon fill="#FFAF37" points="269,978.06,273,969.06,269,973.06,265,969.06,269,978.06" style="stroke:#FFAF37;stroke-width:2.0;"/></g><!--reverse link aws_resource to aws_backup_plan--><g id="link_aws_resource_aws_backup_plan"><path codeLine="54" d="M269,531.08 C269,561.51 269,589.04 269,633.64 " fill="none" id="aws_resource-backto-aws_backup_plan" style="stroke:#FFAF37;stroke-width:2.0;"/><polygon fill="none" points="269,513.08,263,531.08,275,531.08,269,513.08" style="stroke:#FFAF37;stroke-width:2.0;"/></g><!--reverse link resource to aws_resource--><g id="link_resource_aws_resource"><path codeLine="55" d="M269,336.18 C269,381.21 269,408.35 269,438.52 " fill="none" id="resource-backto-aws_resource" style="stroke:#FFAF37;stroke-width:2.0;"/><polygon fill="none" points="269,318.18,263,336.18,275,336.18,269,318.18" style="stroke:#FFAF37;stroke-width:2.0;"/></g><!--SRC=[ZPH1Qzj048Nl-XKBkPaAx8RMSIY5r53QIoXDRo68yUv8NYpjghCZkswR_rwj52NIoefxaZtlyxmtuq5RhL1WKV9H55Xia5paTjgKG5286o9xMDlSahX8KqWlbw7usHe-2zn2WU8BvdjaBI4aVcort1bqJhpjIPz0xZAobL5jUoOmhfRGS8zQv-3S3JFfJSNO2wDMcwiq3ScmwSMbMYpVumYpf92UaFbyhXQh43bhzUhSpyIT_erYqL_QhMKSnHnPDDIhAJtH2paQjDCdCtu3fRJ9nBjUxNkRYGpIe7wt1MKFdauXTtqRnqXe-LZYUZGLhgvKkZm9Vvs28-bN9-3WaasDL6K2QWz6ekg-EsJsIVv4izbJoPQihN6psRLGMlhFGCTxLr-DoTw8zlbGuuJELYGnyH4ytKhHuzYrpC4q5XFsZTdvbFSFBobzomJ8z8o7cbQJagd_nO4e2S4FcYZWHl5FrWLscgM4y6U5ZiE-2dES-ccz1axm5yfgYjZNRn0l3Phs5zWjkTtUODmE6o9PQr5HCv2lUAjmfXErOAxwp8Q5PXYGidxr10wDKfNFuxqenGcVqV8PidF7zXY5nnJ77__ZOAB12Z_yZUCuFCleXDoLedy0]--></g></svg>

<svg xmlns="http://www.w3.org/2000/svg" width="538" height="1085" viewBox="0 0 538 1085"><rect width="366" height="100.383" x="86" y="978.31" fill="#3D176E" rx="2.5" ry="2.5" style="stroke:#000d19;stroke-width:.5"/><circle cx="101" cy="998.205" r="11" fill="#ADD1B2" style="stroke:#181818;stroke-width:1"/><path d="M103.969 1003.845q-.578.297-1.219.438-.64.156-1.344.156-2.5 0-3.828-1.64-1.312-1.657-1.312-4.782t1.312-4.781q1.328-1.656 3.828-1.656.703 0 1.344.156.656.156 1.219.453v2.719q-.625-.578-1.219-.844-.594-.281-1.219-.281-1.344 0-2.031 1.078-.687 1.062-.687 3.156t.687 3.172q.688 1.062 2.031 1.062.625 0 1.219-.265.594-.281 1.219-.86z"/><text x="120" y="1004.09" fill="#D9B8FF" font-family="Helvetica" font-size="17" textLength="324">aws_backup_advanced_backup_setting</text><path d="M87 1018.099h364" style="stroke:#000d19;stroke-width:.5"/><text x="97" y="1040.094" fill="#D9B8FF" font-family="sans-serif" font-size="14" font-weight="bold" textLength="123">backup_options</text><text x="220" y="1040.094" fill="#D9B8FF" font-family="sans-serif" font-size="14" textLength="171">: dictionary[string, string]</text><text x="97" y="1066.391" fill="#D9B8FF" font-family="sans-serif" font-size="14" font-weight="bold" textLength="114">resource_type</text><text x="211" y="1066.391" fill="#D9B8FF" font-family="sans-serif" font-size="14" textLength="48">: string</text><rect width="524" height="284.461" x="7" y="633.85" fill="#3D176E" rx="2.5" ry="2.5" style="stroke:#000d19;stroke-width:.5"/><circle cx="186.75" cy="653.745" r="11" fill="#ADD1B2" style="stroke:#181818;stroke-width:1"/><path d="M189.719 659.385q-.578.297-1.219.438-.64.156-1.344.156-2.5 0-3.828-1.64-1.312-1.657-1.312-4.782t1.312-4.781q1.328-1.656 3.828-1.656.703 0 1.344.156.656.156 1.219.453v2.719q-.625-.578-1.219-.844-.594-.281-1.219-.281-1.344 0-2.031 1.078-.687 1.062-.687 3.156t.687 3.172q.688 1.062 2.031 1.062.625 0 1.219-.265.594-.281 1.219-.86z"/><text x="212.25" y="659.63" fill="#D9B8FF" font-family="Helvetica" font-size="17" textLength="146">aws_backup_plan</text><path d="M8 673.639h522" style="stroke:#000d19;stroke-width:.5"/><text x="18" y="695.634" fill="#D9B8FF" font-family="sans-serif" font-size="14" font-weight="bold" textLength="211">advanced_backup_settings</text><text x="229" y="695.634" fill="#D9B8FF" font-family="sans-serif" font-size="14" textLength="291">: aws_backup_advanced_backup_setting[]</text><text x="18" y="721.931" fill="#D9B8FF" font-family="sans-serif" font-size="14" font-weight="bold" textLength="130">backup_plan_arn</text><text x="148" y="721.931" fill="#D9B8FF" font-family="sans-serif" font-size="14" textLength="48">: string</text><text x="18" y="748.228" fill="#D9B8FF" font-family="sans-serif" font-size="14" font-weight="bold" textLength="118">backup_plan_id</text><text x="136" y="748.228" fill="#D9B8FF" font-family="sans-serif" font-size="14" textLength="48">: string</text><text x="18" y="774.525" fill="#D9B8FF" font-family="sans-serif" font-size="14" font-weight="bold" textLength="147">backup_plan_name</text><text x="165" y="774.525" fill="#D9B8FF" font-family="sans-serif" font-size="14" textLength="48">: string</text><text x="18" y="800.822" fill="#D9B8FF" font-family="sans-serif" font-size="14" font-weight="bold" textLength="107">creation_date</text><text x="125" y="800.822" fill="#D9B8FF" font-family="sans-serif" font-size="14" textLength="70">: datetime</text><text x="18" y="827.119" fill="#D9B8FF" font-family="sans-serif" font-size="14" font-weight="bold" textLength="148">creator_request_id</text><text x="166" y="827.119" fill="#D9B8FF" font-family="sans-serif" font-size="14" textLength="48">: string</text><text x="18" y="853.415" fill="#D9B8FF" font-family="sans-serif" font-size="14" font-weight="bold" textLength="106">deletion_date</text><text x="124" y="853.415" fill="#D9B8FF" font-family="sans-serif" font-size="14" textLength="70">: datetime</text><text x="18" y="879.712" fill="#D9B8FF" font-family="sans-serif" font-size="14" font-weight="bold" textLength="155">last_execution_date</text><text x="173" y="879.712" fill="#D9B8FF" font-family="sans-serif" font-size="14" textLength="70">: datetime</text><text x="18" y="906.009" fill="#D9B8FF" font-family="sans-serif" font-size="14" font-weight="bold" textLength="80">version_id</text><text x="98" y="906.009" fill="#D9B8FF" font-family="sans-serif" font-size="14" textLength="48">: string</text><rect width="155" height="74.086" x="191.5" y="438.76" fill="#3D176E" rx="2.5" ry="2.5" style="stroke:#000d19;stroke-width:.5"/><circle cx="206.5" cy="458.654" r="11" fill="#ADD1B2" style="stroke:#181818;stroke-width:1"/><path d="M209.469 464.295q-.578.297-1.219.438-.64.156-1.344.156-2.5 0-3.828-1.64-1.312-1.657-1.312-4.782t1.312-4.781q1.328-1.656 3.828-1.656.703 0 1.344.156.656.156 1.219.453v2.719q-.625-.579-1.219-.844-.594-.281-1.219-.281-1.344 0-2.031 1.078-.687 1.062-.687 3.156t.687 3.172q.688 1.062 2.031 1.062.625 0 1.219-.265.594-.281 1.219-.86z"/><text x="225.5" y="464.54" fill="#D9B8FF" font-family="Helvetica" font-size="17" textLength="113">aws_resource</text><path d="M192.5 478.549h153" style="stroke:#000d19;stroke-width:.5"/><text x="202.5" y="500.544" fill="#D9B8FF" font-family="sans-serif" font-size="14" font-weight="bold" textLength="26">arn</text><text x="228.5" y="500.544" fill="#D9B8FF" font-family="sans-serif" font-size="14" textLength="48">: string</text><rect width="227" height="310.758" x="155.5" y="7" fill="#3D176E" rx="2.5" ry="2.5" style="stroke:#000d19;stroke-width:.5"/><circle cx="224.25" cy="26.895" r="11" fill="#ADD1B2" style="stroke:#181818;stroke-width:1"/><path d="M227.219 32.535q-.578.297-1.219.438-.64.156-1.344.156-2.5 0-3.828-1.64-1.312-1.657-1.312-4.782t1.312-4.781q1.328-1.656 3.828-1.656.703 0 1.344.156.656.156 1.219.453v2.719q-.625-.578-1.219-.844-.594-.281-1.219-.281-1.344 0-2.031 1.078-.687 1.062-.687 3.156t.687 3.172q.688 1.062 2.031 1.062.625 0 1.219-.265.594-.281 1.219-.86z"/><text x="249.75" y="32.78" fill="#D9B8FF" font-family="Helvetica" font-size="17" textLength="71">resource</text><path d="M156.5 46.789h225" style="stroke:#000d19;stroke-width:.5"/><text x="166.5" y="68.784" fill="#D9B8FF" font-family="sans-serif" font-size="14" font-weight="bold" textLength="29">age</text><text x="195.5" y="68.784" fill="#D9B8FF" font-family="sans-serif" font-size="14" textLength="66">: duration</text><text x="166.5" y="95.081" fill="#D9B8FF" font-family="sans-serif" font-size="14" font-weight="bold" textLength="43">atime</text><text x="209.5" y="95.081" fill="#D9B8FF" font-family="sans-serif" font-size="14" textLength="70">: datetime</text><text x="166.5" y="121.378" fill="#D9B8FF" font-family="sans-serif" font-size="14" font-weight="bold" textLength="43">ctime</text><text x="209.5" y="121.378" fill="#D9B8FF" font-family="sans-serif" font-size="14" textLength="70">: datetime</text><text x="166.5" y="147.675" fill="#D9B8FF" font-family="sans-serif" font-size="14" font-weight="bold" textLength="14">id</text><text x="180.5" y="147.675" fill="#D9B8FF" font-family="sans-serif" font-size="14" textLength="48">: string</text><text x="166.5" y="173.972" fill="#D9B8FF" font-family="sans-serif" font-size="14" font-weight="bold" textLength="33">kind</text><text x="199.5" y="173.972" fill="#D9B8FF" font-family="sans-serif" font-size="14" textLength="48">: string</text><text x="166.5" y="200.269" fill="#D9B8FF" font-family="sans-serif" font-size="14" font-weight="bold" textLength="90">last_access</text><text x="256.5" y="200.269" fill="#D9B8FF" font-family="sans-serif" font-size="14" textLength="66">: duration</text><text x="166.5" y="226.565" fill="#D9B8FF" font-family="sans-serif" font-size="14" font-weight="bold" textLength="90">last_update</text><text x="256.5" y="226.565" fill="#D9B8FF" font-family="sans-serif" font-size="14" textLength="66">: duration</text><text x="166.5" y="252.862" fill="#D9B8FF" font-family="sans-serif" font-size="14" font-weight="bold" textLength="48">mtime</text><text x="214.5" y="252.862" fill="#D9B8FF" font-family="sans-serif" font-size="14" textLength="70">: datetime</text><text x="166.5" y="279.159" fill="#D9B8FF" font-family="sans-serif" font-size="14" font-weight="bold" textLength="43">name</text><text x="209.5" y="279.159" fill="#D9B8FF" font-family="sans-serif" font-size="14" textLength="48">: string</text><text x="166.5" y="305.456" fill="#D9B8FF" font-family="sans-serif" font-size="14" font-weight="bold" textLength="34">tags</text><text x="200.5" y="305.456" fill="#D9B8FF" font-family="sans-serif" font-size="14" textLength="171">: dictionary[string, string]</text><path fill="none" d="M269 918.75v53.31" style="stroke:#ffaf37;stroke-width:2"/><path fill="#FFAF37" d="m269 978.06 4-9-4 4-4-4z" style="stroke:#ffaf37;stroke-width:2"/><path fill="none" d="M269 531.08v102.56m0-120.56-6 18h12zm0-176.9v102.34m0-120.34-6 18h12z" style="stroke:#ffaf37;stroke-width:2"/></svg>
